X:610
T:High Reel, The
B:100 Essential Irish Session Tunes
Z:Nigel Gatherer
L:1/8
M:4/4
K:A
a2 ea ecAB | (3cBA eA  fAeA   | a2 ea ecAB | Bcdc B=GGA  |
a2 ea ecAB | cdef      =g2 fg | af=ge fdec | Bcdc B=GG2 :|
(3cBA eA  fAeA | (3cBA af ecAB   | (3cBA eA  fAec | Bcdc B=GB=c |
(3cBA eA  fAed |   cdef   =g2 fg |   af=ge   fdec | Bcdc B=GG2 :|
<end>
<start>
